assets/illustrations/multisize/48/vector.svg

<svg id="e2a90d55-53cf-4b55-8a7e-4e2547d73eb3" data-name="ICONS" xmlns="http://www.w3.org/2000/svg" xmlns:xlink="http://www.w3.org/1999/xlink" viewBox="0 0 48 48"><defs><linearGradient id="ed0edc52-a87c-48ba-a2f5-0501c262e771" x1="4.58668" y1="5.86411" x2="38.48928" y2="46.26765" gradientUnits="userSpaceOnUse"><stop offset="0" stop-color="#fff" stop-opacity="0"/><stop offset="0.86247" stop-color="#5e5e5e" stop-opacity="0.06315"/><stop offset="1" stop-opacity="0.1"/></linearGradient><linearGradient id="3b1cc90f-8e1f-4f88-a1aa-ce68663d461a" x1="34" y1="16.90625" x2="34" y2="14.08751" gradientUnits="userSpaceOnUse"><stop offset="0" stop-color="#828282" stop-opacity="0"/><stop offset="0.86247" stop-color="#303030" stop-opacity="0.06315"/><stop offset="1" stop-opacity="0.1"/></linearGradient><linearGradient id="d00b6570-2cac-44df-8741-eedae8f1dec9" x1="28.92" y1="19.08" x2="37.48" y2="10.52" gradientUnits="userSpaceOnUse"><stop offset="0" stop-color="#fff" stop-opacity="0"/><stop offset="0.44604" stop-color="#fff" stop-opacity="0.00799"/><stop offset="0.63551" stop-color="#fff" stop-opacity="0.03616"/><stop offset="0.77636" stop-color="#fff" stop-opacity="0.08493"/><stop offset="0.8924" stop-color="#fff" stop-opacity="0.15385"/><stop offset="0.99328" stop-color="#fff" stop-opacity="0.24291"/><stop offset="1" stop-color="#fff" stop-opacity="0.25"/></linearGradient></defs><title>FileTypeIcons_Master_All_NEW</title><polygon points="39 44 9 44 9 4 30 4 39 13 39 44" fill="#fff"/><path d="M30.00049,3H8V45H40V13ZM30,4.5,38.5,13H30ZM39,44H9V4H29V14H39Z" fill="#949494"/><path d="M17,36v4H13V36h4m1-1H12v6h6V35Z" fill="#0078d7"/><polygon points="30 35 29 41 24 29 36 34 30 35" fill="#0078d7"/><path d="M35,18v4H31V18h4m1-1H30v6h6V17Z" fill="#0078d7"/><circle cx="20" cy="25" r="3" fill="#0078d7"/><path d="M17.34766,29.22168a5.04668,5.04668,0,0,1-.79444-.61621A19.49441,19.49441,0,0,0,14.73438,33h1.03173A18.48993,18.48993,0,0,1,17.34766,29.22168Z" fill="#c8c8c8"/><path d="M24.16162,22.23682A18.53766,18.53766,0,0,1,28,20.49756V19.45605a19.48559,19.48559,0,0,0-4.47754,2.001A5.03193,5.03193,0,0,1,24.16162,22.23682Z" fill="#c8c8c8"/><path d="M40,13,30,3H8V45H40Z" fill="url(#ed0edc52-a87c-48ba-a2f5-0501c262e771)"/><rect x="29" y="14" width="10" height="3" fill="url(#3b1cc90f-8e1f-4f88-a1aa-ce68663d461a)"/><polygon points="8 3 8 4 29 4 29 14 39 14 39 45 40 45 40 13 30 3 8 3" fill="url(#d00b6570-2cac-44df-8741-eedae8f1dec9)"/></svg>

<?xml version="1.0" encoding="utf-8"?>
<!-- Generator: Adobe Illustrator 21.1.0, SVG Export Plug-In . SVG Version: 6.00 Build 0)  -->
<svg version="1.1" xmlns="http://www.w3.org/2000/svg" xmlns:xlink="http://www.w3.org/1999/xlink" x="0px" y="0px"
	 viewBox="0 0 48 48" enable-background="new 0 0 48 48" xml:space="preserve">
<g id="TEMPLATE" display="none">
	<g display="inline">
		<path fill="#D0D0D0" d="M48,0v48H0V0H48 M49-1h-1H0h-1v1v48v1h1h48h1v-1V0V-1L49-1z"/>
	</g>
	<g display="inline" opacity="0.1">
		<path fill="#FF3A6D" d="M45,3v42H3V3H45 M48,0H0v48h48V0L48,0z"/>
	</g>
</g>
<g id="ICONS">
	<g>
		<polygon fill="#FFFFFF" points="39,44 9,44 9,4 30,4 39,13 		"/>
		<path fill="#949494" d="M30.0005,3H8v42h32V13L30.0005,3z M30,4.5l8.5,8.5H30V4.5z M39,44H9V4h20v10h10V44z"/>
	</g>
	<path fill="#0078D7" d="M17,36v4h-4v-4H17 M18,35h-6v6h6V35L18,35z"/>
	<g>
		<polygon fill="#0078D7" points="30,35 29,41 24,29 36,34 		"/>
	</g>
	<path fill="#0078D7" d="M35,18v4h-4v-4H35 M36,17h-6v6h6V17L36,17z"/>
	<g>
		<circle fill="#0078D7" cx="20" cy="25" r="3"/>
	</g>
	<path fill="#C8C8C8" d="M17.3477,29.2217c-0.2852-0.1802-0.5518-0.3843-0.7944-0.6162C15.7754,29.9766,15.166,31.4502,14.7344,33
		h1.0317C16.1567,31.6733,16.687,30.4077,17.3477,29.2217z"/>
	<path fill="#C8C8C8" d="M24.1616,22.2368c1.2026-0.7134,2.4824-1.3081,3.8384-1.7393v-1.0415
		c-1.5889,0.4766-3.085,1.1597-4.4775,2.001C23.7612,21.6938,23.9741,21.9561,24.1616,22.2368z"/>
	<linearGradient id="SVGID_1_" gradientUnits="userSpaceOnUse" x1="4.5867" y1="5.8641" x2="38.4893" y2="46.2676">
		<stop  offset="0" style="stop-color:#FFFFFF;stop-opacity:0"/>
		<stop  offset="0.2264" style="stop-color:#FCFCFC;stop-opacity:0.0226"/>
		<stop  offset="0.3626" style="stop-color:#F4F4F4;stop-opacity:0.0363"/>
		<stop  offset="0.475" style="stop-color:#E6E6E6;stop-opacity:0.0475"/>
		<stop  offset="0.5744" style="stop-color:#D1D1D1;stop-opacity:0.0574"/>
		<stop  offset="0.6652" style="stop-color:#B7B7B7;stop-opacity:0.0665"/>
		<stop  offset="0.7498" style="stop-color:#979797;stop-opacity:0.075"/>
		<stop  offset="0.8297" style="stop-color:#707070;stop-opacity:0.083"/>
		<stop  offset="0.9057" style="stop-color:#444444;stop-opacity:0.0906"/>
		<stop  offset="0.9761" style="stop-color:#121212;stop-opacity:0.0976"/>
		<stop  offset="1" style="stop-color:#000000;stop-opacity:0.1"/>
	</linearGradient>
	<path fill="url(#SVGID_1_)" d="M40,13L30,3H8v42h32V13z"/>
	<linearGradient id="SVGID_2_" gradientUnits="userSpaceOnUse" x1="34" y1="16.9063" x2="34" y2="14.0875">
		<stop  offset="0" style="stop-color:#828282;stop-opacity:0"/>
		<stop  offset="0.2812" style="stop-color:#7F7F7F;stop-opacity:0.0281"/>
		<stop  offset="0.4503" style="stop-color:#777777;stop-opacity:0.045"/>
		<stop  offset="0.5899" style="stop-color:#696969;stop-opacity:0.059"/>
		<stop  offset="0.7133" style="stop-color:#545454;stop-opacity:0.0713"/>
		<stop  offset="0.8259" style="stop-color:#3A3A3A;stop-opacity:0.0826"/>
		<stop  offset="0.9294" style="stop-color:#1A1A1A;stop-opacity:0.0929"/>
		<stop  offset="1" style="stop-color:#000000;stop-opacity:0.1"/>
	</linearGradient>
	<rect x="29" y="14" fill="url(#SVGID_2_)" width="10" height="3"/>
	<linearGradient id="SVGID_3_" gradientUnits="userSpaceOnUse" x1="28.92" y1="19.08" x2="37.48" y2="10.52">
		<stop  offset="0" style="stop-color:#FFFFFF;stop-opacity:0"/>
		<stop  offset="0.8537" style="stop-color:#FFFFFF;stop-opacity:0.2134"/>
		<stop  offset="1" style="stop-color:#FFFFFF;stop-opacity:0.25"/>
	</linearGradient>
	<polygon fill="url(#SVGID_3_)" points="8,3 8,4 29,4 29,14 39,14 39,45 40,45 40,13 30,3 	"/>
</g>
</svg>
